X:138
%%pagewidth 8in
%%vocalfont Baskerville10Pro 13
T:Old Sir Simon the King (2nd tune)
M:9/8
L:1/8
K:C
%%score 1 2
V:1 clef-treble
V:2 clef-bass octave=-1
V:1
[B,D]|E>FG (G>A)G [B,G]2[B,D]&Cx2Cx2x3|(E>F)G G>AB [Ed]2[GB]&Cx2Dx2x3|
w:I am a poor man,* God knows, And all* my neigh-bours can tell, I
V:2
G,|B,3E3G2G,|C3B,3A,2G,/F,/|
V:1
([Gc]C)C C2D (E>F)G&x6B,x2|[CA]2G[CF]2E[B,D]2||:
w:want* both money and clothes,* And yet~I live wond'-rous well:
V:2
E,3A,3G,3|F,3D,3G,2||:
V:1
:[Ge]|[^Fd]2c B2A G2[Ge]|(d>e)c (B>c)A (G>A)[GB]&^Fx2x3x3|
w:I have~a con-tent-ed mind, And~a heart* to bear* out all,* Though
w:Then hang up sor-row and~care, It never* shall make* me rue;* What
V:2
:C|!>!(D6E)>DC|!>!D6G2=F|
V:1
(cC)CC2D (E>F)G&Gx2x3B,x2|[CA]2G [CF]2E [B,D]2 :||
w:for-*tune being un-kind* Hath giv'n me sub-stance small.
w:though* my back goes bare,* I'm ragged and torn and true.
V:2
E3A3G3|F3D3G2:||

